svg/emoji_u1f682.svg

<?xml version="1.0" encoding="UTF-8"?>
<svg enable-background="new 0 0 128 128" version="1.1" viewBox="0 0 128 128" xmlns="http://www.w3.org/2000/svg"><polygon points="120 94 64.14 94 62.06 94 26 94 26 118 64 118 64 112 120 112" fill="#3E2723"/><linearGradient id="c" x1="16.084" x2="16.084" y1="94.833" y2="118.17" gradientUnits="userSpaceOnUse"><stop stop-color="#FF7043" offset=".0031062"/><stop stop-color="#F15A2B" offset=".6144"/><stop stop-color="#E64A19" offset="1"/></linearGradient><path d="m28 94.58v23.84c0 0.87-0.71 1.58-1.58 1.58h-20.67c-1.22 0-1.98-1.33-1.36-2.39l15.15-23.84c0.28-0.48 0.8-0.77 1.36-0.77h5.52c0.87 0 1.58 0.71 1.58 1.58z" fill="url(#c)"/><g opacity=".15"><path d="m25 96v21h-16.66l13.35-21h3.31m1.42-3h-5.52c-0.56 0-1.07 0.29-1.36 0.77l-15.15 23.84c-0.62 1.06 0.14 2.39 1.36 2.39h20.67c0.87 0 1.58-0.71 1.58-1.58v-23.84c0-0.87-0.71-1.58-1.58-1.58z" fill="#424242"/></g><circle cx="23.67" cy="71" r="4" fill="#FF5722"/><g opacity=".2"><path d="m23.67 69c1.1 0 2 0.9 2 2s-0.9 2-2 2-2-0.9-2-2 0.89-2 2-2m0-2c-2.21 0-4 1.79-4 4s1.79 4 4 4 4-1.79 4-4-1.79-4-4-4z" fill="#424242"/></g><path d="m30 36.65v6.71c0 0.15 0.02 0.29 0.07 0.43l3.71 11.29c0.18 0.54 0.67 0.91 1.23 0.91h6.05c0.56 0 1.05-0.37 1.23-0.92l3.64-11.29c0.04-0.14 0.07-0.28 0.07-0.42v-6.71c0-0.74-0.58-1.34-1.3-1.34h-13.4c-0.72 0-1.3 0.6-1.3 1.34z" fill="#546E7A"/><g opacity=".2"><path d="m44 37.31v5.96l-3.46 10.73h-5.01l-3.53-10.73v-5.95h12m0.7-2.01h-13.4c-0.72 0-1.3 0.6-1.3 1.34v6.71c0 0.15 0.02 0.29 0.07 0.43l3.71 11.29c0.18 0.54 0.67 0.91 1.23 0.91h6.05c0.56 0 1.05-0.37 1.23-0.92l3.64-11.29c0.04-0.14 0.07-0.28 0.07-0.42v-6.71c0-0.74-0.58-1.34-1.3-1.34z" fill="#424242"/></g><linearGradient id="b" x1="56.5" x2="56.5" y1="55.384" y2="89.791" gradientUnits="userSpaceOnUse"><stop stop-color="#FF7043" offset=".00058829"/><stop stop-color="#F15A2B" offset=".6134"/><stop stop-color="#E64A19" offset="1"/></linearGradient><path d="m83.88 56h-54.88c-2.75 0-5 1.97-5 4.45v25.1c0 2.48 2.25 4.46 5 4.46h54.88c2.75 0 5.12-2.18 5.12-4.65v-24.94c0-2.47-2.38-4.42-5.12-4.42z" fill="url(#b)"/><g opacity=".2"><path d="m83.88 59c1.21 0 2.12 0.72 2.12 1.35v24.56c0 0.88-1 2.09-2 2.09h-55c-1.07 0-2-1.06-2-1.91v-24.71c0-0.75 0.92-1.38 2-1.38h55m-0.12-3h-54.88c-2.75 0-5 1.94-5 4.38v24.72c0 2.44 2.25 4.91 5 4.91h55c2.75 0 5-2.66 5-5.09v-24.57c0-2.43-2.38-4.35-5.12-4.35z" fill="#424242"/></g><linearGradient id="a" x1="98" x2="98" y1="32" y2="90" gradientUnits="userSpaceOnUse"><stop stop-color="#FF7043" offset="0"/><stop stop-color="#F15A2B" offset=".6132"/><stop stop-color="#E64A19" offset="1"/></linearGradient><path d="M121.64,32H74.36c-1.3,0-2.36,0.95-2.36,2.05v0.11c0,1.1,1.06,1.83,2.36,1.83H76v54h44V36  h1.64c1.3,0,2.36-0.73,2.36-1.83v-0.11C124,32.95,122.94,32,121.64,32z" fill="url(#a)"/><g opacity=".2"><path d="m117 35v52h-38v-52h38m4.64-3h-47.28c-1.3 0-2.36 0.95-2.36 2.05v0.11c0 1.1 1.06 1.83 2.36 1.83h1.64v54h44v-53.99h1.64c1.3 0 2.36-0.73 2.36-1.83v-0.11c0-1.11-1.06-2.06-2.36-2.06z" fill="#424242"/></g><circle cx="75.51" cy="108.06" r="16.06" fill="#3E2723"/><circle cx="75.51" cy="108.06" r="13.37" fill="#6D4C41"/><ellipse transform="matrix(.9438 -.3306 .3306 .9438 -31.482 31.042)" cx="75.51" cy="108.06" rx="6.31" ry="6.31" fill="#BDBDBD"/><circle cx="107.56" cy="108.06" r="16.06" fill="#3E2723"/><circle cx="107.56" cy="108.06" r="13.7" fill="#6D4C41"/><circle cx="107.51" cy="108.06" r="6.31" fill="#BDBDBD"/><circle cx="36.82" cy="117.3" r="6.82" fill="#5D4037"/><circle cx="36.82" cy="117.3" r="2.75" fill="#BDBDBD"/><path d="m93.67 64h-8.17c-1.1 0-2-0.9-2-2v-19.88c0-1.1 0.9-2 2-2h8.17c1.1 0 2 0.9 2 2v19.88c0 1.1-0.89 2-2 2z" fill="#4FC3F7"/><path d="m110.5 64h-8.17c-1.1 0-2-0.9-2-2v-19.88c0-1.1 0.9-2 2-2h8.17c1.1 0 2 0.9 2 2v19.88c0 1.1-0.9 2-2 2z" fill="#4FC3F7"/><circle cx="53.12" cy="117.3" r="6.82" fill="#5D4037"/><circle cx="53.04" cy="117.3" r="2.75" fill="#BDBDBD"/><path d="M109,110H64c-0.26,0-0.51-0.07-0.74-0.2l-12-6.81c-0.72-0.41-0.97-1.33-0.56-2.04  c0.41-0.72,1.33-0.97,2.04-0.56L64.4,107H109c0.83,0,1.5,0.67,1.5,1.5S109.83,110,109,110z" fill="#FFEB3B"/><path d="m52.77 107.27h-19.62c-1.65 0-3-1.35-3-3v-5.17c0-1.65 1.35-3 3-3h19.63c1.65 0 3 1.35 3 3v5.17c-0.01 1.65-1.36 3-3.01 3z" fill="#546E7A"/><g opacity=".2"><path d="m52.77 98.1c0.54 0 1 0.46 1 1v5.17c0 0.54-0.46 1-1 1h-19.62c-0.54 0-1-0.46-1-1v-5.17c0-0.54 0.46-1 1-1h19.62m0-2h-19.62c-1.65 0-3 1.35-3 3v5.17c0 1.65 1.35 3 3 3h19.63c1.65 0 3-1.35 3-3v-5.17c-0.01-1.65-1.36-3-3.01-3z" fill="#424242"/></g><path d="m122 94.52h-104c-1.1 0-2-0.9-2-2v-1.03c0-1.1 0.9-2 2-2h104c1.1 0 2 0.9 2 2v1.03c0 1.1-0.9 2-2 2z" fill="#616161"/><g opacity=".2"><path d="m93.67 42.12v19.88h-8.17v-19.88h8.17m0-2h-8.17c-1.1 0-2 0.9-2 2v19.88c0 1.1 0.9 2 2 2h8.17c1.1 0 2-0.9 2-2v-19.88c0-1.1-0.89-2-2-2z" fill="#424242"/></g><g opacity=".2"><path d="m110.5 42.12v19.88h-8.17v-19.88h8.17m0-2h-8.17c-1.1 0-2 0.9-2 2v19.88c0 1.1 0.9 2 2 2h8.17c1.1 0 2-0.9 2-2v-19.88c0-1.1-0.9-2-2-2z" fill="#424242"/></g></svg>

<?xml version="1.0" encoding="utf-8"?>
<!-- Generator: Adobe Illustrator 19.2.1, SVG Export Plug-In . SVG Version: 6.00 Build 0)  -->
<svg version="1.1" id="Layer_3" xmlns="http://www.w3.org/2000/svg" xmlns:xlink="http://www.w3.org/1999/xlink" x="0px" y="0px"
	 viewBox="0 0 128 128" style="enable-background:new 0 0 128 128;" xml:space="preserve">
<polygon style="fill:#3E2723;" points="120,94 64.14,94 62.06,94 26,94 26,118 64,118 64,112 120,112 "/>
<linearGradient id="SVGID_1_" gradientUnits="userSpaceOnUse" x1="16.0838" y1="94.8333" x2="16.0838" y2="118.1673">
	<stop  offset="3.106175e-03" style="stop-color:#FF7043"/>
	<stop  offset="0.6144" style="stop-color:#F15A2B"/>
	<stop  offset="1" style="stop-color:#E64A19"/>
</linearGradient>
<path style="fill:url(#SVGID_1_);" d="M28,94.58v23.84c0,0.87-0.71,1.58-1.58,1.58H5.75c-1.22,0-1.98-1.33-1.36-2.39l15.15-23.84
	c0.28-0.48,0.8-0.77,1.36-0.77h5.52C27.29,93,28,93.71,28,94.58z"/>
<g style="opacity:0.15;">
	<path style="fill:#424242;" d="M25,96v21H8.34l13.35-21H25 M26.42,93H20.9c-0.56,0-1.07,0.29-1.36,0.77L4.39,117.61
		C3.77,118.67,4.53,120,5.75,120h20.67c0.87,0,1.58-0.71,1.58-1.58V94.58C28,93.71,27.29,93,26.42,93L26.42,93z"/>
</g>
<g>
	<circle style="fill:#FF5722;" cx="23.67" cy="71" r="4"/>
</g>
<g style="opacity:0.2;">
	<path style="fill:#424242;" d="M23.67,69c1.1,0,2,0.9,2,2s-0.9,2-2,2s-2-0.9-2-2S22.56,69,23.67,69 M23.67,67c-2.21,0-4,1.79-4,4
		s1.79,4,4,4s4-1.79,4-4S25.88,67,23.67,67L23.67,67z"/>
</g>
<path style="fill:#546E7A;" d="M30,36.65v6.71c0,0.15,0.02,0.29,0.07,0.43l3.71,11.29c0.18,0.54,0.67,0.91,1.23,0.91h6.05
	c0.56,0,1.05-0.37,1.23-0.92l3.64-11.29c0.04-0.14,0.07-0.28,0.07-0.42v-6.71c0-0.74-0.58-1.34-1.3-1.34H31.3
	C30.58,35.31,30,35.91,30,36.65z"/>
<g style="opacity:0.2;">
	<path style="fill:#424242;" d="M44,37.31v5.96L40.54,54h-5.01L32,43.27v-5.95H44 M44.7,35.31H31.3c-0.72,0-1.3,0.6-1.3,1.34v6.71
		c0,0.15,0.02,0.29,0.07,0.43l3.71,11.29c0.18,0.54,0.67,0.91,1.23,0.91h6.05c0.56,0,1.05-0.37,1.23-0.92l3.64-11.29
		c0.04-0.14,0.07-0.28,0.07-0.42v-6.71C46,35.91,45.42,35.31,44.7,35.31L44.7,35.31z"/>
</g>
<linearGradient id="SVGID_2_" gradientUnits="userSpaceOnUse" x1="56.5" y1="55.3841" x2="56.5" y2="89.7913">
	<stop  offset="5.882907e-04" style="stop-color:#FF7043"/>
	<stop  offset="0.6134" style="stop-color:#F15A2B"/>
	<stop  offset="1" style="stop-color:#E64A19"/>
</linearGradient>
<path style="fill:url(#SVGID_2_);" d="M83.88,56H32l0,0h-3c-2.75,0-5,1.97-5,4.45v25.1c0,2.48,2.25,4.46,5,4.46h3l0,0h51.88
	c2.75,0,5.12-2.18,5.12-4.65V60.42C89,57.95,86.62,56,83.88,56z"/>
<g style="opacity:0.2;">
	<path style="fill:#424242;" d="M83.88,59c1.21,0,2.12,0.72,2.12,1.35v24.56c0,0.88-1,2.09-2,2.09H29c-1.07,0-2-1.06-2-1.91V60.38
		c0-0.75,0.92-1.38,2-1.38h3h52 M83.88,56H32h-3c-2.75,0-5,1.94-5,4.38v24.72c0,2.44,2.25,4.91,5,4.91h55c2.75,0,5-2.66,5-5.09
		V60.35C89,57.92,86.62,56,83.88,56L83.88,56z"/>
</g>
<linearGradient id="SVGID_3_" gradientUnits="userSpaceOnUse" x1="98" y1="32" x2="98" y2="90">
	<stop  offset="0" style="stop-color:#FF7043"/>
	<stop  offset="0.6132" style="stop-color:#F15A2B"/>
	<stop  offset="1" style="stop-color:#E64A19"/>
</linearGradient>
<path style="fill:url(#SVGID_3_);" d="M121.64,32H74.36c-1.3,0-2.36,0.95-2.36,2.05v0.11c0,1.1,1.06,1.83,2.36,1.83H76v54h44V36
	h1.64c1.3,0,2.36-0.73,2.36-1.83v-0.11C124,32.95,122.94,32,121.64,32z"/>
<g style="opacity:0.2;">
	<path style="fill:#424242;" d="M117,35v1v51H79V36v-1H117 M121.64,32H74.36c-1.3,0-2.36,0.95-2.36,2.05v0.11
		c0,1.1,1.06,1.83,2.36,1.83H76v54h44V36h1.64c1.3,0,2.36-0.73,2.36-1.83v-0.11C124,32.95,122.94,32,121.64,32L121.64,32z"/>
</g>
<g>
	<circle style="fill:#3E2723;" cx="75.51" cy="108.06" r="16.06"/>
</g>
<circle style="fill:#6D4C41;" cx="75.51" cy="108.06" r="13.37"/>
<ellipse transform="matrix(0.9438 -0.3306 0.3306 0.9438 -31.4824 31.0425)" style="fill:#BDBDBD;" cx="75.51" cy="108.06" rx="6.31" ry="6.31"/>
<circle style="fill:#3E2723;" cx="107.56" cy="108.06" r="16.06"/>
<circle style="fill:#6D4C41;" cx="107.56" cy="108.06" r="13.7"/>
<circle style="fill:#BDBDBD;" cx="107.51" cy="108.06" r="6.31"/>
<g>
	<circle style="fill:#5D4037;" cx="36.82" cy="117.3" r="6.82"/>
	<circle style="fill:#BDBDBD;" cx="36.82" cy="117.3" r="2.75"/>
</g>
<path style="fill:#4FC3F7;" d="M93.67,64H85.5c-1.1,0-2-0.9-2-2V42.12c0-1.1,0.9-2,2-2h8.17c1.1,0,2,0.9,2,2V62
	C95.67,63.1,94.78,64,93.67,64z"/>
<path style="fill:#4FC3F7;" d="M110.5,64h-8.17c-1.1,0-2-0.9-2-2V42.12c0-1.1,0.9-2,2-2h8.17c1.1,0,2,0.9,2,2V62
	C112.5,63.1,111.6,64,110.5,64z"/>
<g>
	<circle style="fill:#5D4037;" cx="53.12" cy="117.3" r="6.82"/>
	<circle style="fill:#BDBDBD;" cx="53.04" cy="117.3" r="2.75"/>
</g>
<path style="fill:#FFEB3B;" d="M109,110H64c-0.26,0-0.51-0.07-0.74-0.2l-12-6.81c-0.72-0.41-0.97-1.33-0.56-2.04
	c0.41-0.72,1.33-0.97,2.04-0.56L64.4,107H109c0.83,0,1.5,0.67,1.5,1.5S109.83,110,109,110z"/>
<path style="fill:#546E7A;" d="M52.77,107.27H33.15c-1.65,0-3-1.35-3-3V99.1c0-1.65,1.35-3,3-3h19.63c1.65,0,3,1.35,3,3v5.17
	C55.77,105.92,54.42,107.27,52.77,107.27z"/>
<g style="opacity:0.2;">
	<path style="fill:#424242;" d="M52.77,98.1c0.54,0,1,0.46,1,1v5.17c0,0.54-0.46,1-1,1H33.15c-0.54,0-1-0.46-1-1V99.1
		c0-0.54,0.46-1,1-1H52.77 M52.77,96.1H33.15c-1.65,0-3,1.35-3,3v5.17c0,1.65,1.35,3,3,3h19.63c1.65,0,3-1.35,3-3V99.1
		C55.77,97.45,54.42,96.1,52.77,96.1L52.77,96.1z"/>
</g>
<path style="fill:#616161;" d="M122,94.52H18c-1.1,0-2-0.9-2-2v-1.03c0-1.1,0.9-2,2-2h104c1.1,0,2,0.9,2,2v1.03
	C124,93.62,123.1,94.52,122,94.52z"/>
<g style="opacity:0.2;">
	<path style="fill:#424242;" d="M93.67,42.12V62H85.5V42.12H93.67 M93.67,40.12H85.5c-1.1,0-2,0.9-2,2V62c0,1.1,0.9,2,2,2h8.17
		c1.1,0,2-0.9,2-2V42.12C95.67,41.02,94.78,40.12,93.67,40.12L93.67,40.12z"/>
</g>
<g style="opacity:0.2;">
	<path style="fill:#424242;" d="M110.5,42.12V62h-8.17V42.12H110.5 M110.5,40.12h-8.17c-1.1,0-2,0.9-2,2V62c0,1.1,0.9,2,2,2h8.17
		c1.1,0,2-0.9,2-2V42.12C112.5,41.02,111.6,40.12,110.5,40.12L110.5,40.12z"/>
</g>
</svg>
